X:305
T:Reel 305
M:4/4
K:Dmix
L:1/8
d|cAAc BAGF|GEDE GEGE|cAAB AGAB|cAGE EDDG|AccB cBcA|GAcG EGG2|cdec dcBd|cAGE EDD|A|ddde f2ed|cdef gefe|cdef g2ed|eaag eddc|Adde f2ed|cdef gece|d2fd efed|cAGE EDD|
